!!!!SEGMENT: pl-cz--iii-744--001-004_zebrowski-marcin-jozef--missa-ex-d-sanctus.krn
!!!cenid: 17xx:2346
!!!COM: Żebrowski, Marcin Józef
!!!COM-rismID: pe30020322
!!!CDT: 1702-1770/06/29
!!!CNT: Polish
!!!OPR: Missa ex D
!!!OTL: Sanctus
!!!OMV: 004
!!!PDT: 1782
!!!AGN: Sacred; Mass
!!!YEC: Copyright 2022 Narodowy Instytut Fryderyka Chopina (https://polishscores.org)
!!!YEM: License CC-BY-4.0 (https://creativecommons.org/licenses/by/4.0)
!!!SMS-siglum: PL-CZ
!!!SMS-shelfmark: III-744
!!!SMS-shelfwork: 001-004 M
!!!SMS-variant:
!!!SMS-altvar:
!!!NIFC-rismSourceID: 300033496
!!!NIFC-rismChildID: 300033496
!!!NIFC-islandoraID: pl-cz:25261
!!!URL-pdf-islandora: https://repozytorium.nifc.pl/islandora/object/pl-cz%3A25261/datastream/PDF/view
!!!URL-scan: https://polish.musicsources.pl/pl/lokalizacje/galeria/rekopisy/1474 @EN{Scan on Polish Music Sources Website} @PL{Skany w portalu Dziedzictwo Muzyki Polskiej w otwartym dostępie}
!!!IIIF:
!!!ONB-nifc: UWAGA: części Mszy: 1. Kyrie, 2. Gloria, 3. Patrem, 4. Sanctus, 5. Benedictus, 6. Agnus Dei
!!!AIN: 1 bass 2 clrno 1 organ 1 soprn 2 violn
!!!key: D
**kern	**fba	**dynam	**kern	**dynam	**kern	**dynam	**kern	**text	**kern	**text	**kern	**kern
*	*	*	*group3	*	*group3	*	*group2	*	*group2	*	*group1	*group1
*part7	*	*	*part6	*	*part5	*	*part4	*	*part3	*	*part2	*part1
*staff7	*	*	*staff6	*	*staff5	*	*staff4	*	*staff3	*	*staff2	*staff1
*I"Organo	*	*	*I"Violino Secundo.	*	*I"Violino Primo.	*	*I"Baſso.	*	*I"Canto.	*	*I"Clarino Secundo. ex D ad libitum.	*I"Clarino Primo. ex D: ad libitum.
*I'org	*	*	*I'vl 2	*	*I'vl 1	*	*I'B	*	*I'S	*	*I'clno 2 in D	*I'clno 1 in D
*Iorgan	*	*	*Ivioln	*	*Ivioln	*	*Ibass	*	*Isoprn	*	*Iclrno	*Iclrno
*ICklav	*	*	*ICstr	*	*ICstr	*	*ICvox	*	*ICvox	*	*ICbras	*ICbras
*IGcont	*	*	*	*	*	*	*	*	*	*	*	*
*clefF4	*	*	*clefG2	*	*clefG2	*	*clefF4	*	*clefC1	*	*clefG2	*clefG2
*	*	*	*	*	*	*	*	*	*	*	*ITrd-1c-2	*ITrd-1c-2
*k[f#c#]	*	*	*k[f#c#]	*	*k[f#c#]	*	*k[f#c#]	*	*k[f#c#]	*	*k[f#c#]	*k[f#c#]
*D:	*	*	*D:	*	*D:	*	*D:	*	*D:	*	*D:	*D:
*M4/4	*	*	*M4/4	*	*M4/4	*	*M4/4	*	*M4/4	*	*M4/4	*M4/4
*met(c)	*	*	*met(c)	*	*met(c)	*	*met(c)	*	*met(c)	*	*met(c)	*met(c)
=1	=1	=1	=1	=1	=1	=1	=1	=1	=1	=1	=1	=1
*2\right	*	*	*2\right	*	*2\right	*	*2\right	*	*	*	*2\right	*2\right
!	!	!	!	!	!	!	!	!	!LO:TX:t=P:problem=znaki f# cc#	!	!	!
!	!	!	!	!	!	!	!	!	!LO:TX:a:t=2	!	!	!
!LO:TX:a:t=Adag&colon; Tut&colon;	!	!	!LO:TX:a:t=adagio	!	!LO:TX:a:i:t=Adagio.	!	!LO:TX:a:i:t=Adagio	!	!LO:TX:a:t=Adagio	!	!LO:TX:a:t=adagio	!LO:TX:a:t=adagio
2d\	8	.	2dd\|	.	2dd\|	.	2d\	San-	0r	.	2dd\|	2dd\|
2A\	8	.	2a/|	.	2a/|	.	2A\	-ctus	.	.	2a/|	2a/|
=2	=2	=2	=2	=2	=2	=2	=2	=2	=2	=2	=2	=2
4.F#\	8	.	4.f#/	.	4.f#t/	.	4.F#t\	Do-	.	.	4f#/	4f#/
.	.	.	.	.	.	.	.	.	.	.	4r	4r
8E\	8	.	8e/	.	8e/	.	8E\	-i-	.	.	.	.
2D\	8	.	2d/	.	2d/	.	2D\	-nus	.	.	4d/	4d/
.	.	.	.	.	.	.	.	.	.	.	4r	4r
=3	=3	=3	=3	=3	=3	=3	=3	=3	=3	=3	=3	=3
2.G\	3	.	4b\	.	4dd\	.	4G\	Do-	4b\	Do-	4dd\	4dd\
.	.	.	8b\L	.	8dd\L	.	8G\	-mi-	8b\	-mi-	8dd\L	8dd\L
.	.	.	8b\J	.	8dd\J	.	8G\	-nus	8b\	-nus	8dd\J	8dd\J
.	4 2	.	4cc#\	.	4ee\	.	4G\	De-	4a\	De-	4a/	4ee\
4F#\	6	.	4a/	.	4ff#\	.	4F#\	-us	4dd\	-us	4dd\	4ff#\
=4	=4	=4	=4	=4	=4	=4	=4	=4	=4	=4	=4	=4
.	.	.	.	.	.	.	.	.	8qqa/	.	.	.
4E\	7	.	4b\	.	4.ggT\	.	(4E\	Sa-	4.g\	Sa-	2ee\	2ggT\
4AA/	7	.	4cc#\	.	.	.	8A\)	.	.	.	.	.
.	.	.	.	.	8ee\	.	8AA/	-ba-	8g\	-ba-	.	.
.	.	.	8qqcc#/	.	8qqee/	.	.	.	.	.	.	.
2D\	.	.	2dd\	.	2ff#\	.	2D/	-oth.	2f#/	-oth	2dd\	2ff#\
=5||	=5||	=5||	=5||	=5||	=5||	=5||	=5||	=5||	=5||	=5||	=5||	=5||
*M3/4	*	*	*M3/4	*	*M3/4	*	*M3/4	*	*M3/4	*	*M3/4	*M3/4
!	!	!	!LO:TX:b:t=poco.	!	!	!	!	!	!	!	!LO:TX:b:t=poco.	!
!LO:TX:a:i:t=Allo poco.	!	!	!LO:TX:a:t=Allo&colon;	!	!LO:TX:b:t=allo&colon;	!	!LO:TX:a:t=allo.	!	!	!	!LO:TX:a:t=Allo.	!LO:TX:a:t=allo&colon; poco
8D\L	.	.	4dd\|	.	4ff#\|	.	8D\L	Ple-	4ff#\	Ple-	4dd\	4ff#\
8C#\	.	.	.	.	.	.	8C#\J	.	.	.	.	.
8D\	.	.	4dd\|	.	4ff#\|	.	8D\L	-ni	4ff#\	-ni	4dd\	4ff#\
8E\	.	.	.	.	.	.	8E\J	.	.	.	.	.
8F#\	.	.	4dd\|	.	4ff#\|	.	8F#\L	sunt	4ff#\	sunt	4dd\	4ff#\
8G\J	.	.	.	.	.	.	8G\J	.	.	.	.	.
=6	=6	=6	=6	=6	=6	=6	=6	=6	=6	=6	=6	=6
8A\L	.	.	4ddT\	.	4ff#\|	.	2A\	Cae-	4ff#\	Cae-	4dd\	4ff#\
8G#X\	.	.	.	.	.	.	.	.	.	.	.	.
*	*	*	*	*	*	*	*	*	*2\right	*	*	*
8A\	.	.	4cc#\	.	4ee\|	.	.	.	2ee\	-li	4a/	4ee\
8B\	.	.	.	.	.	.	.	.	.	.	.	.
8c#\	.	.	4r	.	4r	.	4A\	-li	.	.	4r	4r
8A\J	.	.	.	.	.	.	.	.	.	.	.	.
=7	=7	=7	=7	=7	=7	=7	=7	=7	=7	=7	=7	=7
8BB/L	.	.	4b\|	.	4dd\	.	8BB/L	ple-	4dd\	ple-	4f#/	4f#/
8AA#X/	.	.	.	.	.	.	8AA#X/J	.	.	.	.	.
8BB/	.	.	4b\|	.	4dd\	.	8BB/L	-ni	4dd\	-ni	8f#/L	8f#/L
8C#/	.	.	.	.	.	.	8C#/J	.	.	.	8f#/	8f#/
8D/	.	.	4b\|	.	4dd\	.	8D\L	sunt	4dd\	sunt	8f#/	8f#/
8E/J	.	.	.	.	.	.	8E\J	.	.	.	8f#/J	8f#/J
!	!	!	!	!	!	!	!LO:LB:g=original	!	!	!	!	!
=8	=8	=8	=8	=8	=8	=8	=8	=8	=8	=8	=8	=8
8F#\L	.	.	4bT\	.	4dd\	.	2F#\	Cae-	4dd\	Cae-	4f#/	4f#/
8E#X\	.	.	.	.	.	.	.	.	.	.	.	.
8F#\	.	.	4a/	.	4cc#\	.	.	.	2cc#\	-li	4r	4r
8G#X\	.	.	.	.	.	.	.	.	.	.	.	.
8A\	.	.	4r	.	4r	.	4F#\	-li	.	.	4r	4r
8F#\J	.	.	.	.	.	.	.	.	.	.	.	.
!	!	!	!LO:LB:g=original	!	!	!	!	!	!	!	!	!
=9	=9	=9	=9	=9	=9	=9	=9	=9	=9	=9	=9	=9
8Gn\L	.	.	4g/|	.	4b/	.	8G\L	Cae-	4b\	Cae-	4d/	4d/
8F#\	.	.	.	.	.	.	8F#\J	.	.	.	.	.
8G\	.	.	4g/|	.	4b/	.	8G\L	-li	4b\	-li	8d/L	8d/L
8A\	.	.	.	.	.	.	8A\J	.	.	.	8d/	8d/
8B\	.	.	4g/|	.	4b/	.	8B\L	et	4b\	et	8d/	8d/
8c#\J	.	.	.	.	.	.	8c#\J	.	.	.	8d/J	8d/J
!LO:LB:g=original	!	!	!	!	!	!	!	!	!	!	!	!LO:LB:g=original
=10	=10	=10	=10	=10	=10	=10	=10	=10	=10	=10	=10	=10
8D/L	.	.	4gT/	.	4bT/	.	2d\	ter-	4b\	ter-	4d/	4d/
8C#/	.	.	.	.	.	.	.	.	.	.	.	.
8D/	.	.	8f#/L	.	4a/	.	.	.	2a\	-ra	4r	4r
8E/	.	.	8a/J	.	.	.	.	.	.	.	.	.
8F#/	.	.	8dd\L	.	4aa\	.	4D\	-ra	.	.	4r	4r
8D/J	.	.	8ff#\J	.	.	.	.	.	.	.	.	.
!	!	!	!	!	!LO:LB:g=original	!	!	!	!	!	!	!
=11	=11	=11	=11	=11	=11	=11	=11	=11	=11	=11	=11	=11
2d\	+4r 2	.	2.ee\	.	2gg#X\	.	4.d\	Glo-	4.b\	glo-	[2.ee\	2gg#X\
.	.	.	.	.	.	.	8d\	-ri-	8b\	-ri-	.	.
[4c#\	6	.	.	.	[4aa\	.	[4c#\	-a	4cc#\	-a	.	[4aa\
!	!	!	!	!	!	!	!	!	!	!	!LO:LB:g=original	!
=12	=12	=12	=12	=12	=12	=12	=12	=12	=12	=12	=12	=12
!	!	!	!	!	!	!	!	!	!	!	!LO:TX:t=P:problem=brak zakończenia ligatury	!
4c#\]	2	.	2dd\	.	8aa\L]	.	4c#\]	.	2.dd\	tu-	4ee\]	8aa\L]
.	.	.	.	.	8ff#\J	.	.	.	.	.	.	8ff#\J
4B\	6\	.	.	.	2gg#Xt\	.	(4B\	tu-	.	.	4.ee\	2gg#Xt\
4E\	.	.	4dd\	.	.	.	4E\)	.	.	.	.	.
.	.	.	.	.	.	.	.	.	.	.	8ee\	.
!	!	!	!	!	!	!	!	!	!LO:LB:g=original	!	!	!
=13	=13	=13	=13	=13	=13	=13	=13	=13	=13	=13	=13	=13
.	.	.	.	.	8qqgg/	.	.	.	8qqdd/	.	.	.
4.AA/	.	.	2cc#\	.	2aa\	.	2A\	-a	2cc#\	-a.	2a/	2aa\
8AA/L|	.	.	.	.	.	.	.	.	.	.	.	.
8C#/|	.	.	4r	.	4r	.	4r	.	4r	.	4r	4r
8E/J|	.	.	.	.	.	.	.	.	.	.	.	.
=14	=14	=14	=14	=14	=14	=14	=14	=14	=14	=14	=14	=14
8A\L	.	.	2cc#\	.	2ee\	.	8A\L	Ple-	2.r	.	4a/	4ee\
8G\	.	.	.	.	.	.	8G\J	.	.	.	.	.
8A\	.	.	.	.	.	.	8A\L	-ni	.	.	8a/L	8ee\L
8B\	.	.	.	.	.	.	8B\J	.	.	.	8a/	8ee\
8A\	.	.	4cc#\	.	4ee\	.	8A\L	sunt	.	.	8a/	8ee\
8G\J	.	.	.	.	.	.	8G\J	.	.	.	8a/J	8ee\J
=15	=15	=15	=15	=15	=15	=15	=15	=15	=15	=15	=15	=15
2F#\	6	.	8dd\L	.	8ff#\L	.	2F#\	Cae-	8dd\L	Ple-	4dd\	4ff#\
.	.	.	8cc#\	.	8ee\	.	.	.	8cc#\J	.	.	.
.	.	.	8dd\	.	8ff#\	.	.	.	8dd\L	-ni	4r	4r
.	.	.	8ee\	.	8gg\	.	.	.	8ee\J	.	.	.
4F#\	.	.	8dd\	.	8ff#\	.	4F#\	-li	8dd\L	sunt	4r	4r
.	.	.	8cc#\J	.	8ee\J	.	.	.	8cc#\J	.	.	.
=16	=16	=16	=16	=16	=16	=16	=16	=16	=16	=16	=16	=16
!	!	!	!	!	!	!	!	!	!	!	!	!LO:TX:a:t=3
8G\L	.	.	2b\	.	2dd\	.	8G\L	Cae-	2b\	Cae-	1.r	1.r
8F#\	.	.	.	.	.	.	8F#\J	.	.	.	.	.
8G\	.	.	.	.	.	.	8G\L	-li	.	.	.	.
8A\	.	.	.	.	.	.	8A\J	.	.	.	.	.
8G\	.	.	4b\	.	4dd\	.	8G\L	et	4b\	-li,	.	.
8F#\J	.	.	.	.	.	.	8F#\J	.	.	.	.	.
=17	=17	=17	=17	=17	=17	=17	=17	=17	=17	=17	=17	=17
2E\	6	.	8cc#\L	.	8ee\L	.	2E\	ter-	8cc#\L	et	.	.
.	.	.	8b\	.	8dd\	.	.	.	8b\J	.	.	.
.	.	.	8cc#\	.	8ee\	.	.	.	8cc#\L	ter-	.	.
.	.	.	8dd\	.	8ff#\	.	.	.	8dd\J	.	.	.
!	!	!	!	!	!	!	!LO:TX:b:i:t=V&colon; S&colon;	!	!	!	!	!
4E\	.	.	8cc#\	.	8ee\	.	4E\	-ra	8cc#\L	-ra	.	.
.	.	.	8b\J	.	8dd\J	.	.	.	8b\J	.	.	.
!	!	!	!	!	!	!	!LO:PB:g=original	!	!	!	!	!
=18	=18	=18	=18	=18	=18	=18	=18	=18	=18	=18	=18	=18
2F#\	#	.	2a#X/	.	2cc#\	.	4.F#\	glo-	4.a#X\	glo-	2.r	2.r
.	.	.	.	.	.	.	8F#\	-ri-	8a#\	-ri-	.	.
[4E#X\	7 5	.	[4b/	.	[4dd\	.	[4E#X\	-a	[4b\	-a	.	.
=19	=19	=19	=19	=19	=19	=19	=19	=19	=19	=19	=19	=19
4E#\]	.	.	4b/]	.	4dd\]	.	4E#\]	.	4b\]	.	4f#/	4f#/
4F#\	#	.	2a#Xt/	.	2cc#t\	.	2F#\	tu-	2a#X\	tu-	8f#/L	8f#/L
.	.	.	.	.	.	.	.	.	.	.	8f#/	8f#/
4FF#/	.	.	.	.	.	.	.	.	.	.	8f#/	8f#/
.	.	.	.	.	.	.	.	.	.	.	8f#/J	8f#/J
!	!	!	!LO:LB:g=original	!	!	!	!	!	!	!	!	!
=20	=20	=20	=20	=20	=20	=20	=20	=20	=20	=20	=20	=20
2.BB/	.	.	2.b\	.	2.b\	.	2.BB/	-a.	2.b\	-a	2f#/	2f#/
.	.	.	.	.	.	.	.	.	.	.	4r	4r
=21	=21	=21	=21	=21	=21	=21	=21	=21	=21	=21	=21	=21
*clefC1	*	*	*	*	*	*	*	*	*	*	*	*
*k[f#c#]	*	*	*	*	*	*	*	*	*	*	*	*
!	!	!	!	!	!	!	!	!	!	!	!	!LO:TX:a:t=2
8g\L	.	.	4gg\|	.	4bb\	.	1.r	.	8g/L	ple-	1.r	1.r
8f#\	.	.	.	.	.	.	.	.	8f#/J	.	.	.
8g\	.	.	4gg\|	.	4bb\	.	.	.	8g\L	-ni	.	.
8a\	.	.	.	.	.	.	.	.	8a\J	.	.	.
8b\	.	.	4gg\|	.	4bb\	.	.	.	8b\L	sunt	.	.
8cc#\J	.	.	.	.	.	.	.	.	8cc#\J	.	.	.
=22	=22	=22	=22	=22	=22	=22	=22	=22	=22	=22	=22	=22
2dd\	6 4	.	2ggT\	.	2bbT\	.	.	.	2dd\	Cae-	.	.
4dd\	5 3	.	4ff#\	.	4aa\	.	.	.	4dd\	-li	.	.
!LO:LB:g=original	!	!	!	!	!	!	!	!	!	!	!	!
=23	=23	=23	=23	=23	=23	=23	=23	=23	=23	=23	=23	=23
*clefF4	*	*	*	*	*	*	*	*	*	*	*	*
8D\L	.	.	4dd\|	.	4ff#\	.	8D\L	Ple-	4ff#\	ple-	4dd\	4ff#\
8C#\	.	.	.	.	.	.	8C#\J	.	.	.	.	.
8D\	.	.	4dd\|	.	4ff#\	.	8D\L	-ni	4ff#\	-ni	4dd\	4ff#\
8E\	.	.	.	.	.	.	8E\J	.	.	.	.	.
8F#\	.	.	4dd\|	.	4ff#\	.	8F#\L	sunt	4ff#\	sunt	4dd\	4ff#\
8G\J	.	.	.	.	.	.	8G\J	.	.	.	.	.
=24	=24	=24	=24	=24	=24	=24	=24	=24	=24	=24	=24	=24
8A\L	6 4	.	2ddT\	.	2ff#t\	.	2A\	Cae-	2ff#\	Cae-	2dd\	2ff#\
8G#X\	.	.	.	.	.	.	.	.	.	.	.	.
8A\	5 3	.	.	.	.	.	.	.	.	.	.	.
8B\	.	.	.	.	.	.	.	.	.	.	.	.
8c#\	.	.	4cc#\	.	4ee\	.	4A\	-li	4ee\	-li	4a/	4ee\
8A\J	.	.	.	.	.	.	.	.	.	.	.	.
=25	=25	=25	=25	=25	=25	=25	=25	=25	=25	=25	=25	=25
2.d\	9	.	4dd\	.	8ff#\L	.	4d\	Cae-	4ff#\	Cae-	4dd\	4ff#\
.	.	.	.	.	8ee\	.	.	.	.	.	.	.
.	6	.	[2bb\	.	8ff#\	.	4d\	-li	4ff#\	-li	4dd\	4ff#\
.	.	.	.	.	8gg\	.	.	.	.	.	.	.
.	.	.	.	.	8aa\	.	4d\	et	4ff#\	et	4dd\	4ff#\
.	.	.	.	.	8bb\J	.	.	.	.	.	.	.
!	!	!	!	!	!LO:LB:g=original	!	!	!	!LO:LB:g=original	!	!	!LO:LB:g=original
=26	=26	=26	=26	=26	=26	=26	=26	=26	=26	=26	=26	=26
2.c#\	7	.	4bb\]	.	8ee\L	.	2c#\	ter-	2ee\	ter-	2a/	2ee\
.	.	.	.	.	8dd\	.	.	.	.	.	.	.
.	6	.	[2aa\	.	8ee\	.	.	.	.	.	.	.
.	.	.	.	.	8ff#\	.	.	.	.	.	.	.
.	.	.	.	.	8gg\	.	4c#\	-ra	4ee\	-ra	4r	4r
.	.	.	.	.	8aa\J	.	.	.	.	.	.	.
=27	=27	=27	=27	=27	=27	=27	=27	=27	=27	=27	=27	=27
!	!	!	!	!	!	!	!	!	!	!	!LO:TX:a:t=10	!
2.B\	7	.	4aa\]	.	8dd\L	.	4B\	Cae-	4dd\	Cae-	0.r	0.r
.	.	.	.	.	8cc#\	.	.	.	.	.	.	.
.	6	.	[2gg\	.	8dd\	.	4B\	-li	4dd\	-li	.	.
.	.	.	.	.	8ee\	.	.	.	.	.	.	.
.	.	.	.	.	8ff#\	.	4B\	et	4dd\	et	.	.
.	.	.	.	.	8gg\J	.	.	.	.	.	.	.
=28	=28	=28	=28	=28	=28	=28	=28	=28	=28	=28	=28	=28
2.A\	7	.	4gg\]	.	8cc#\L	.	2A\	ter-	2cc#\	ter-	.	.
.	.	.	.	.	8b\	.	.	.	.	.	.	.
.	6	.	[2ff#\	.	8cc#\	.	.	.	.	.	.	.
.	.	.	.	.	8dd\	.	.	.	.	.	.	.
.	.	.	.	.	8ee\	.	4A\	-ra	4cc#\	-ra	.	.
.	.	.	.	.	8ff#\J	.	.	.	.	.	.	.
=29	=29	=29	=29	=29	=29	=29	=29	=29	=29	=29	=29	=29
2.G\	7	.	4ff#\]	.	8b\L	.	4G\	Cae-	4b\	Cae-	.	.
.	.	.	.	.	8a\	.	.	.	.	.	.	.
.	6	.	[2ee\	.	8b\	.	4G\	-li	4b\	-li	.	.
.	.	.	.	.	8cc#\	.	.	.	.	.	.	.
.	.	.	.	.	8dd\	.	4G\	et	4b\	et	.	.
.	.	.	.	.	8ee\J	.	.	.	.	.	.	.
=30	=30	=30	=30	=30	=30	=30	=30	=30	=30	=30	=30	=30
2.F#\	7	.	4ee\]	.	8a\L	.	2F#\	ter-	2a\	ter-	.	.
.	.	.	.	.	8g\	.	.	.	.	.	.	.
.	6	.	[2dd\	.	8a\	.	.	.	.	.	.	.
.	.	.	.	.	8b\	.	.	.	.	.	.	.
.	.	.	.	.	8cc#\	.	4F#\	-ra	4a\	-ra	.	.
.	.	.	.	.	8dd\J	.	.	.	.	.	.	.
!	!	!	!	!	!	!	!LO:LB:g=original	!	!	!	!	!
=31	=31	=31	=31	=31	=31	=31	=31	=31	=31	=31	=31	=31
2.AA/	4	.	4dd\]	.	[2.ee\	.	[2.A\	glo-	2.r	.	0.r	0.r
.	3	.	8cc#\L	.	.	.	.	.	.	.	.	.
.	.	.	8b\J	.	.	.	.	.	.	.	.	.
.	.	.	4cc#\	.	.	.	.	.	.	.	.	.
=32	=32	=32	=32	=32	=32	=32	=32	=32	=32	=32	=32	=32
2.AA/	6_ 3	.	[2.ff#\	.	4ee\]	.	2.A\_	.	[2.ff#\	Glo-	.	.
.	x 4	.	.	.	8dd\L	.	.	.	.	.	.	.
.	.	.	.	.	8cc#\J	.	.	.	.	.	.	.
.	.	.	.	.	4dd\	.	.	.	.	.	.	.
!	!	!	!LO:LB:g=original	!	!	!	!	!	!	!	!	!
=33	=33	=33	=33	=33	=33	=33	=33	=33	=33	=33	=33	=33
2.AA/	7_ 6	.	4ff#\]	.	[2.gg\	.	2.A\_	.	4ff#\]	.	.	.
.	x 5	.	8ee\L	.	.	.	.	.	8ee\L	.	.	.
.	.	.	8dd\J	.	.	.	.	.	8dd\J	.	.	.
.	.	.	4ee\	.	.	.	.	.	4ee\	.	.	.
=34	=34	=34	=34	=34	=34	=34	=34	=34	=34	=34	=34	=34
2.AA/	8_ 7	.	[2.aa\	.	4gg\]	.	2.A\_	.	[2.aa\	.	.	.
.	x 6	.	.	.	8ff#\L	.	.	.	.	.	.	.
.	.	.	.	.	8ee\J	.	.	.	.	.	.	.
.	.	.	.	.	4ff#\	.	.	.	.	.	.	.
=35	=35	=35	=35	=35	=35	=35	=35	=35	=35	=35	=35	=35
2.AA/	9_ 8	.	4aa\]	.	[2.bb\	.	2.A\_	.	4aa\]	.	1.r	1.r
.	x 7	.	8gg\L	.	.	.	.	.	8gg\L	.	.	.
.	.	.	8ff#\	.	.	.	.	.	8ff#\	.	.	.
.	.	.	8ee\	.	.	.	.	.	8ee\	.	.	.
.	.	.	8dd\J	.	.	.	.	.	8dd\J	.	.	.
=36	=36	=36	=36	=36	=36	=36	=36	=36	=36	=36	=36	=36
2.AA/	9 7_	.	2.cc#\	.	4bb\]	.	4.A\]	.	4.cc#\	.	.	.
.	8 x	.	.	.	8aa\L	.	.	.	.	.	.	.
.	.	.	.	.	8gg\	.	8A\	-ri-	8cc#\	-ri-	.	.
.	.	.	.	.	8ff#\	.	4A\	-a	4cc#\	-a	.	.
.	.	.	.	.	8ee\J	.	.	.	.	.	.	.
=37	=37	=37	=37	=37	=37	=37	=37	=37	=37	=37	=37	=37
4D/	.	.	4dd\|	.	4ff#\|	.	4d\|	tu-	4dd\|	tu-	4dd\|	4ff#\|
4GG/	6	.	4ee\|	.	4gg\|	.	4G\|	.	4ee\|	.	4ee\|	4gg\|
4AA/	.	.	4cc#\|	.	4ee\|	.	4A\|	.	4cc#\|	.	4a/|	4ee\|
=38	=38	=38	=38	=38	=38	=38	=38	=38	=38	=38	=38	=38
!	!	!	!	!	!LO:TX:b:i:t=Osanno Seq.	!	!	!	!	!	!	!
2DD/	.	.	2dd\	.	2ff# 2a 2d/	.	2D\	-a	2dd\	-a.	2dd\	2ff#\
4r	.	.	4r	.	4r	.	4r	.	4r	.	4r	4r
!LO:LB:g=original	!	!	!LO:LB:g=original	!	!LO:PB:g=original	!	!	!	!LO:LB:g=original	!	!LO:LB:g=original	!
=39||	=39||	=39||	=39||	=39||	=39||	=39||	=39||	=39||	=39||	=39||	=39||	=39||
*M2/2	*	*	*M2/2	*	*M2/2	*	*M2/2	*	*M2/2	*	*M2/2	*M2/2
*met(c|)	*	*	*met(c|)	*	*met(c|)	*	*met(c|)	*	*met(c|)	*	*met(c|)	*met(c|)
!	!	!	!	!	!	!	!	!	!	!	!	!LO:TX:b:t=Osanna
!LO:TX:b:t=Osanna	!	!	!LO:TX:b:t=Osanna.	!	!LO:TX:b:t=Osanna.	!	!	!	!LO:TX:b:t=3	!	!LO:TX:b:t=Osanna	!LO:TX:a:t=6.
!LO:TX:a:t=allo&colon; Tut&colon;	!	!	!LO:TX:a:t=allo.	!	!LO:TX:a:t=allo&colon; aſsai	!	!LO:TX:a:i:t=Allo&colon; aſsai.	!	!LO:TX:a:i:t=All. aſsai	!	!LO:TX:a:t=allo&colon;	!LO:TX:a:t=allo
1A	.	.	0r	.	00r	.	1A	O-	0r	.	00r	00r
=40	=40	=40	=40	=40	=40	=40	=40	=40	=40	=40	=40	=40
!LO:TX:b:t=uniſsono.	!	!	!	!	!	!	!	!	!	!	!	!
2F#\	.	.	.	.	.	.	2F#\	-san-	.	.	.	.
[2B\	.	.	.	.	.	.	[2B\	-na	.	.	.	.
=41	=41	=41	=41	=41	=41	=41	=41	=41	=41	=41	=41	=41
4B\]	.	.	1r	.	.	.	4B\]	.	1r	.	.	.
8A\L	.	.	.	.	.	.	8A\L	o-	.	.	.	.
8G\J	.	.	.	.	.	.	8G\J	.	.	.	.	.
4F#\	.	.	.	.	.	.	4F#\	-san-	.	.	.	.
4E\	.	.	.	.	.	.	4E\	-na	.	.	.	.
=42	=42	=42	=42	=42	=42	=42	=42	=42	=42	=42	=42	=42
4F#\	6	.	1dd	.	.	.	4F#\	in	1dd	O-	.	.
4D\	.	.	.	.	.	.	4D\	ex-	.	.	.	.
4F#\	.	.	.	.	.	.	(4F#\	-cel-	.	.	.	.
4G#X\	.	.	.	.	.	.	4G#X\)	.	.	.	.	.
!	!	!	!	!	!	!	!LO:LB:g=original	!	!	!	!	!
=43	=43	=43	=43	=43	=43	=43	=43	=43	=43	=43	=43	=43
2.A\	3	.	2cc#\	.	0r	.	2A\	-sis	2cc#\	-san-	0r	0r
.	6	.	[2ff#\	.	.	.	4r	.	[2ff#\	-na	.	.
4A\	.	.	.	.	.	.	4A\	O-	.	.	.	.
=44	=44	=44	=44	=44	=44	=44	=44	=44	=44	=44	=44	=44
2G#X\	7	.	4ff#\]	.	.	.	2G#X\	-san-	4ff#,\]	.	.	.
.	6	.	8ee\L	.	.	.	.	.	8ee\L	o-	.	.
.	.	.	8dd\J	.	.	.	.	.	8dd\J	.	.	.
4A\	5	.	4cc#\	.	.	.	(4A\	-na	4cc#\	-san-	.	.
4G#X\	6	.	4b\	.	.	.	4G#X\)	.	4b\	-na	.	.
=45	=45	=45	=45	=45	=45	=45	=45	=45	=45	=45	=45	=45
2A\	.	.	4cc#\	.	1aa	.	2A\	in	4cc#\	in	1aa	1aa
.	.	.	4a\	.	.	.	.	.	4a\	ex-	.	.
2Gn\	4 2	.	4b\	.	.	.	2Gn\	ex-	(4b\	-cel-	.	.
.	.	.	4cc#\	.	.	.	.	.	4cc#\)	.	.	.
=46	=46	=46	=46	=46	=46	=46	=46	=46	=46	=46	=46	=46
1D	5	.	2.dd\	.	2ff#\	.	1D	-cel-	2.dd\	-sis	2ff#\	2ff#\
.	6	.	.	.	[2bb\	.	.	.	.	.	[2bb\	[2bb\
.	.	.	4dd\	.	.	.	.	.	4dd\	O-	.	.
=47	=47	=47	=47	=47	=47	=47	=47	=47	=47	=47	=47	=47
1AA	9	.	2cc#\	.	4bb\]	.	1A	-sis	2cc#\	-san-	4bb\]	4bb\]
.	8	.	.	.	8aa\L	.	.	.	.	.	8aa\L	8aa\L
.	.	.	.	.	8gg\J	.	.	.	.	.	8gg\J	8gg\J
.	.	.	4dd\	.	4ff#\	.	.	.	(4dd\	.	4ff#\	4ff#\
.	.	.	4cc#\	.	4ee\	.	.	.	4cc#\)	.	4ee\	4ee\
=48	=48	=48	=48	=48	=48	=48	=48	=48	=48	=48	=48	=48
1D	3	.	2dd\	.	4ff#\	.	1D	O-	2dd\	-na	4ff#\	4ff#\
.	.	.	.	.	4dd\	.	.	.	.	.	4dd\	4dd\
.	.	.	2r	.	4ff#\	.	.	.	2r	.	4ff#\	4ff#\
.	+4r	.	.	.	4gg#X\	.	.	.	.	.	4gg#X\	4gg#X\
=49	=49	=49	=49	=49	=49	=49	=49	=49	=49	=49	=49	=49
2C#/	6	.	1a	.	2.aa\	.	2C#/	-san-	0r	.	2.aa\	2.aa\
2F#\	6	.	.	.	.	.	[2F#\	-na	.	.	.	.
.	.	.	.	.	4aa\	.	.	.	.	.	4aa\	4aa\
=50	=50	=50	=50	=50	=50	=50	=50	=50	=50	=50	=50	=50
4F#\	4 #2r	.	4b\	.	2gg#X\	.	4F#\]	.	.	.	2gg#X\	2gg#X\
8E\L	.	.	8cc#\L	.	.	.	8E\L	o-	.	.	.	.
8D\J	.	.	8dd\J	.	.	.	8D\J	.	.	.	.	.
4C#/	6	.	4ee\	.	4aa\	.	4C#/	-san-	.	.	4aa\	4aa\
4BB/	6\	.	4dd\	.	4gg#X\	.	4BB/	-na	.	.	4gg#X\	4gg#X\
!	!	!	!	!	!	!	!	!	!	!	!	!LO:LB:g=original
=51	=51	=51	=51	=51	=51	=51	=51	=51	=51	=51	=51	=51
4C#/	6	.	4ee\	.	2aa\	.	4C#/	in	1a	O-	2aa\	2aa\
4AA/	.	.	4cc#\	.	.	.	4AA/	ex-	.	.	.	.
4BB/	n6r	.	4dd\	.	2ggnT\	.	(4BB/	-cel-	.	.	4r	2ggn\
4C#/	.	.	4ee\	.	.	.	4C#/)	.	.	.	4ee\	.
!	!	!	!LO:LB:g=original	!	!	!	!	!	!	!	!	!
=52	=52	=52	=52	=52	=52	=52	=52	=52	=52	=52	=52	=52
2.D/	3	.	2a/	.	2ff#\	.	2.D/	-sis	2f#/	-san-	2dd\	2ff#\
.	6	.	[2b/	.	2f#/	.	.	.	[2b\	.	2r	2r
4D/	.	.	.	.	.	.	4D/	o-	.	.	.	.
!LO:LB:g=original	!	!	!	!	!	!	!	!	!	!	!	!
=53	=53	=53	=53	=53	=53	=53	=53	=53	=53	=53	=53	=53
2C#/	7	.	4b/]	.	2e/	.	2C#/	-san-	4b\]	.	1r	1r
.	6	.	8a/L	.	.	.	.	.	8a\L	.	.	.
.	.	.	8g/J	.	.	.	.	.	8g\J	.	.	.
4D/	5	.	4f#/	.	2a/	.	(4D/	.	4f#/	.	.	.
4C#/	6	.	4e/	.	.	.	4C#/)	.	4e/	.	.	.
=54	=54	=54	=54	=54	=54	=54	=54	=54	=54	=54	=54	=54
2D\	.	.	4f#/	.	4a/	.	2D\	-na	2f#/	-na	4r	4r
.	.	.	4ff#\	.	4aa\	.	.	.	.	.	4ff#\	4aa\
4r	.	.	4dd\	.	4ff#\	.	4r	.	4r	.	4dd\	4ff#\
4d\	6 4	.	[4gg\	.	[4bb\	.	4d\	o-	4gg\	in	[4gg\	[4bb\
!	!	!	!	!	!	!	!LO:LB:g=original	!	!LO:LB:g=original	!	!	!
=55	=55	=55	=55	=55	=55	=55	=55	=55	=55	=55	=55	=55
2c#\	7	.	4gg\]	.	4bb\]	.	2c#\	-san-	2ee\	ex-	4gg\]	4bb\]
.	6	.	8ff#\L	.	8aa\L	.	.	.	.	.	8ff#\L	8aa\L
.	.	.	8ee\J	.	8gg\J	.	.	.	.	.	8ee\J	8gg\J
!	!	!	!	!	!	!	!	!	!	!	!LO:LB:g=original	!
2A\	6 4	.	4dd\	.	4ff#\	.	2A\	[[-n-]]	(4dd\	-cel-	4dd\	4ff#\
.	5 3	.	4cc#\	.	4ee\	.	.	.	4cc#\)	.	4a/	4ee\
=56	=56	=56	=56	=56	=56	=56	=56	=56	=56	=56	=56	=56
2d\	.	.	4dd\	.	4ff#\	.	2d\	-na	2dd\	-sis	2dd\	2ff#\
!	!	!	!	!LO:DY:b:t=p&colon;	!	!LO:DY:b:t=p&colon;	!	!	!	!	!	!
.	.	.	4f#/	p	4a/	p	.	.	.	.	.	.
4r	.	.	4d/	.	4f#/	.	2r	.	2r	.	2r	2r
4D/	6 4	.	4g/	.	[4b/	.	.	.	.	.	.	.
!	!	!	!	!	!LO:LB:g=original	!	!	!	!	!	!	!
=57	=57	=57	=57	=57	=57	=57	=57	=57	=57	=57	=57	=57
!	!	!LO:DY:b:t=pia&colon;	!	!	!	!	!	!	!	!	!	!
2C#/	7	p	4g/	.	4b/]	.	1r	.	1r	.	00r	00r
.	6	.	8f#/L	.	8a/L	.	.	.	.	.	.	.
.	.	.	8e/J	.	8g/J	.	.	.	.	.	.	.
2AA/	6 4	.	4d/	.	4f#/	.	.	.	.	.	.	.
.	5 3	.	4c#/	.	4e/	.	.	.	.	.	.	.
=58	=58	=58	=58	=58	=58	=58	=58	=58	=58	=58	=58	=58
2D\	.	.	4d/	.	4f#/	.	2r	.	2r	.	.	.
.	.	.	4dd\	.	4ff#\	.	.	.	.	.	.	.
!	!	!	!	!LO:DY:b:t=for&colon;	!	!LO:DY:b:t=f&colon;	!	!	!	!	!	!
4r	.	.	4b\	f	4dd\	f	4r	.	4r	.	.	.
!	!	!LO:DY:b:t=for&colon;	!	!	!	!	!	!	!	!	!	!
4B\	6 4	f	[4ee\	.	[4gg\	.	4B\	o-	4ee\	O-	.	.
=59	=59	=59	=59	=59	=59	=59	=59	=59	=59	=59	=59	=59
2A#X\	7	.	4ee\]	.	4gg\]	.	(2A#X\	-san-	2cc#\	-san-	.	.
.	6	.	8dd\L	.	8ff#\L	.	.	.	.	.	.	.
.	.	.	8cc#\J	.	8ee\J	.	.	.	.	.	.	.
2F#\	6 4	.	4b\	.	4dd\	.	2F#\)	.	(4b\	.	.	.
.	5 #	.	4a#X/	.	4cc#\	.	.	.	4a#X\)	.	.	.
=60	=60	=60	=60	=60	=60	=60	=60	=60	=60	=60	=60	=60
2B\	.	.	4b\	.	4dd\	.	2B\	-na	2b\	-na	.	.
!	!	!	!	!LO:DY:b:rj:t=p&colon;	!	!LO:DY:b:t=p&colon;	!	!	!	!	!	!
.	.	.	4d/	p	4f#/	p	.	.	.	.	.	.
4r	.	.	4B/	.	4d/	.	2r	.	2r	.	.	.
!	!	!LO:DY:b:t=p&colon;	!	!	!	!	!	!	!	!	!	!
4BB/	6 4	p	[4e/	.	[4g/	.	.	.	.	.	.	.
!	!	!	!LO:LB:g=original	!	!	!	!	!	!	!	!	!
=61	=61	=61	=61	=61	=61	=61	=61	=61	=61	=61	=61	=61
2AA#X/	7	.	4e/]	.	4g/]	.	1r	.	1r	.	0r	0r
.	6	.	8d/L	.	8f#/L	.	.	.	.	.	.	.
.	.	.	8c#/J	.	8e/J	.	.	.	.	.	.	.
2FF#/	6 4	.	4B/	.	4d/	.	.	.	.	.	.	.
.	5 #	.	4A#X/	.	4c#/	.	.	.	.	.	.	.
=62	=62	=62	=62	=62	=62	=62	=62	=62	=62	=62	=62	=62
2BB/	.	.	4B/	.	4d/	.	2r	.	2r	.	.	.
!	!	!	!	!LO:DY:b:t=f&colon;	!	!	!	!	!	!	!	!
.	.	.	4b/	f	4dd\	.	.	.	.	.	.	.
4r	.	.	4g/	.	4b\	.	4r	.	4r	.	.	.
!	!	!LO:DY:b:t=for	!	!	!	!	!	!	!	!	!	!
4G\	6 n4r	f	[4ccn\	.	[4ee\	.	4G\	in	4ccn\	in	.	.
=63	=63	=63	=63	=63	=63	=63	=63	=63	=63	=63	=63	=63
2F#\	7	.	4cc\]	.	4ee\]	.	2F#\	ex-	2a\	ex-	1r	1r
.	6	.	8b\L	.	8dd\L	.	.	.	.	.	.	.
.	.	.	8a\J	.	8ccn\J	.	.	.	.	.	.	.
2D\	6 4	.	4g/	.	4b/	.	2D\	-cel-	(4g/	-cel-	.	.
.	5 3	.	4f#/	.	4a/	.	.	.	4f#/)	.	.	.
=64	=64	=64	=64	=64	=64	=64	=64	=64	=64	=64	=64	=64
2G\	.	.	2g/|	.	2b\|	.	2G\	-sis	2g\	-sis	2d/	2d/
2F#\	6 -5	.	2a/|	.	2ccn\|	.	2F#\	o-	2a\	o-	4d/	4d/
.	.	.	.	.	.	.	.	.	.	.	4d/	4d/
=65	=65	=65	=65	=65	=65	=65	=65	=65	=65	=65	=65	=65
4G\	.	.	1gT	.	1bT	.	(2G\	-san-	1b	-san-	2d/	2d/
4GG/|	.	.	.	.	.	.	.	.	.	.	.	.
4BB/|	6	.	.	.	.	.	2GG/)	.	.	.	2d/	2d/
4C#/|	.	.	.	.	.	.	.	.	.	.	.	.
=66	=66	=66	=66	=66	=66	=66	=66	=66	=66	=66	=66	=66
0D	.	.	0f#	.	0a	.	0D	.	0a	.	0d	0d
==	==	==	==	==	==	==	==	==	==	==	==	==
*-	*-	*-	*-	*-	*-	*-	*-	*-	*-	*-	*-	*-
!!!system-decoration: [(g1)][(g2)][(g3)]s7
!!!RDF**kern: | = vertical stroke
!!!ENC: Berenika Jozajtis
!!!END: 2022-04-01
!!!ENC: Marta Lawrence
!!!END: 2022-04-06
